X:16469
T:The Beggar Girl. TLY.004
M:6/8
L:1/8
Q:100
S:Wm.Tildesley,Swinton,Lancs.1860s.
R:Misc.
O:England.
A:Lancashire.
N:Bar 12, crochet d has a rall. sign above it - can't reproduce this in
N:ABC
H:1860.
Z:Taz Tarry.
K:G
d>cB d>cB|A>GA B3|d>cB d>cB|A>GA G2d|d>cB d>cB|!
 A>GA B>cd|d>cB d>cB|A>GA G2z:||DGB DAc|DcB {B}A>GA|!
DG=F E2 "*"c/c/|BAG d2 c|d>cB d>cB|A>GA B>cd|d>cB e
>fg|B>cA G2 z||
%Uneven note rhythm at end of bar 3, B strain,but ABC won't do it.
